src/assets/img/titok.svg

<svg width="41" height="40" viewBox="0 0 41 40" fill="none" xmlns="http://www.w3.org/2000/svg">
<path d="M32.2988 12.0281C30.7711 11.7077 29.3876 10.9173 28.3502 9.77201C27.3128 8.62676 26.6756 7.18658 26.5315 5.66141V5H21.2614V25.5053C21.2582 26.4131 20.9649 27.2971 20.4227 28.033C19.8806 28.769 19.1169 29.3199 18.239 29.6083C17.361 29.8968 16.4129 29.9083 15.5279 29.6413C14.643 29.3742 13.8656 28.842 13.305 28.1195C12.7358 27.3848 12.42 26.4915 12.4035 25.5691C12.387 24.6466 12.6706 23.743 13.2132 22.9893C13.7558 22.2355 14.5292 21.6708 15.4213 21.377C16.3133 21.0832 17.2776 21.0756 18.1743 21.3554V16.106C16.1747 15.835 14.1386 16.1836 12.351 17.1029C10.5633 18.0223 9.11349 19.4664 8.20425 21.2334C7.295 23.0004 6.97184 25.0018 7.27996 26.9577C7.58808 28.9136 8.51207 30.7262 9.92268 32.1419C11.2679 33.4914 12.9928 34.4172 14.8771 34.8013C16.7615 35.1853 18.7198 35.0101 20.5021 34.2981C22.2845 33.5861 23.8099 32.3695 24.8839 30.8036C25.9578 29.2378 26.5314 27.3937 26.5315 25.5068V15.0292C28.6614 16.522 31.215 17.3224 33.8332 17.3179V12.1841C33.3176 12.1847 32.8033 12.1324 32.2988 12.0281Z" fill="#171717"/>
</svg>

<svg xmlns="http://www.w3.org/2000/svg" width="41" height="40" fill="none"><path fill="#171717" d="M32.299 12.028a7.37 7.37 0 0 1-3.949-2.256 7.12 7.12 0 0 1-1.819-4.11V5h-5.27v20.505a4.3 4.3 0 0 1-.838 2.528 4.43 4.43 0 0 1-2.184 1.575 4.5 4.5 0 0 1-2.711.033 4.43 4.43 0 0 1-2.223-1.521 4.3 4.3 0 0 1-.902-2.55 4.3 4.3 0 0 1 .81-2.58 4.42 4.42 0 0 1 2.208-1.613 4.5 4.5 0 0 1 2.753-.022v-5.249a9.85 9.85 0 0 0-5.823.997 9.6 9.6 0 0 0-4.147 4.13 9.33 9.33 0 0 0-.924 5.725 9.42 9.42 0 0 0 2.643 5.184 9.74 9.74 0 0 0 4.954 2.66 9.87 9.87 0 0 0 5.625-.504 9.65 9.65 0 0 0 4.382-3.494 9.36 9.36 0 0 0 1.648-5.297V15.029a12.7 12.7 0 0 0 7.301 2.289v-5.134c-.515 0-1.03-.052-1.534-.156"/></svg>
